src/colour.svg

<svg width="75" height="50" viewBox="0 0 75 50" fill="none" xmlns="http://www.w3.org/2000/svg">
<circle cx="49.8174" cy="24.7671" r="24.002" fill="#1D70B8" stroke="#F2F7FA"/>
<circle cx="25.3145" cy="24.7671" r="24.002" stroke="#1D70B8"/>
<mask id="path-3-inside-1_869_1937" fill="white">
<path d="M37.5664 3.54443C44.8898 7.78101 49.8174 15.699 49.8174 24.7681C49.8173 33.8369 44.8897 41.7542 37.5664 45.9907C30.2432 41.7542 25.3156 33.8368 25.3154 24.7681C25.3154 15.6991 30.2431 7.78103 37.5664 3.54443Z"/>
</mask>
<path d="M37.5664 3.54443C44.8898 7.78101 49.8174 15.699 49.8174 24.7681C49.8173 33.8369 44.8897 41.7542 37.5664 45.9907C30.2432 41.7542 25.3156 33.8368 25.3154 24.7681C25.3154 15.6991 30.2431 7.78103 37.5664 3.54443Z" fill="#1D70B8"/>
<path d="M37.5664 3.54443L38.0671 2.67884L37.5664 2.38916L37.0657 2.67884L37.5664 3.54443ZM49.8174 24.7681L50.8174 24.7681V24.7681H49.8174ZM37.5664 45.9907L37.0656 46.8563L37.5664 47.146L38.0672 46.8563L37.5664 45.9907ZM25.3154 24.7681H24.3154V24.7681L25.3154 24.7681ZM37.5664 3.54443L37.0657 4.41003C44.0929 8.47522 48.8174 16.0705 48.8174 24.7681H49.8174H50.8174C50.8174 15.3276 45.6868 7.08679 38.0671 2.67884L37.5664 3.54443ZM49.8174 24.7681L48.8174 24.7681C48.8173 33.4654 44.0927 41.06 37.0657 45.1251L37.5664 45.9907L38.0672 46.8563C45.6866 42.4484 50.8173 34.2084 50.8174 24.7681L49.8174 24.7681ZM37.5664 45.9907L38.0672 45.1251C31.0402 41.0599 26.3155 33.4653 26.3154 24.7681L25.3154 24.7681L24.3154 24.7681C24.3156 34.2083 29.4463 42.4484 37.0656 46.8563L37.5664 45.9907ZM25.3154 24.7681H26.3154C26.3154 16.0706 31.0401 8.47525 38.0672 4.41002L37.5664 3.54443L37.0657 2.67884C29.4461 7.08682 24.3154 15.3277 24.3154 24.7681H25.3154Z" fill="#F2F7FA" mask="url(#path-3-inside-1_869_1937)"/>
</svg>

<svg width="75" height="50" fill="none" xmlns="http://www.w3.org/2000/svg">
  <circle cx="49.82" cy="24.77" r="24" fill="#1D70B8" stroke="#F2F7FA"/>
  <circle cx="25.31" cy="24.77" r="24" stroke="#1D70B8"/>
  <mask id="a" fill="#fff">
    <path d="M37.57 3.54a24.5 24.5 0 0 1 0 42.45 24.5 24.5 0 0 1 0-42.45Z"/>
  </mask>
  <path d="M37.57 3.54a24.5 24.5 0 0 1 0 42.45 24.5 24.5 0 0 1 0-42.45Z" fill="#1D70B8"/>
  <path d="m37.57 3.54.5-.86-.5-.3-.5.3.5.86Zm12.25 21.23h1-1ZM37.57 45.99l-.5.87.5.29.5-.3-.5-.86ZM25.32 24.77h-1 1ZM37.57 3.54l-.5.87a23.5 23.5 0 0 1 11.75 20.36h2a25.5 25.5 0 0 0-12.75-22.1l-.5.87Zm12.25 21.23h-1c0 8.7-4.73 16.29-11.75 20.36l.5.86.5.87a25.5 25.5 0 0 0 12.75-22.1h-1ZM37.57 45.99l.5-.86a23.5 23.5 0 0 1-11.75-20.36h-2a25.5 25.5 0 0 0 12.75 22.09l.5-.87ZM25.32 24.77h1c0-8.7 4.72-16.3 11.75-20.36l-.5-.87-.5-.86a25.5 25.5 0 0 0-12.75 22.09h1Z" fill="#F2F7FA" mask="url(#a)"/>
</svg>
